X: 25
T: Wind That Shakes The Barley, The
Z: Aaron Bergen
S: https://thesession.org/tunes/116#setting48813
R: reel
M: 4/4
L: 1/8
K: Dmaj
"D"A2AB AFED|"G"B2BA BcdB|"D"A2AB AFED|"G"gfed "A"BcdB|
"D"A2AB AFED|"G"B2BA BcdB|"D"A2AB AFED|"G"gfed "A"Bcde||
"D"f2fd "G"g2ge|"D"f2fd "A"Bcde|"D"f2fd "G"g2ge|"D"afed "A"Bcde|
"D"f2fd "G"g2ge|"D"f2fd "A"Bcde|"D"fafd "G"gbge|"D"afed "A"BcdB||

